ui/StatusQ/src/assets/img/icons/double-check.svg

<svg fill="none" height="24" viewBox="0 0 24 24" width="24" xmlns="http://www.w3.org/2000/svg"><g clip-rule="evenodd" fill="#4360df" fill-rule="evenodd"><path d="m22.864 4.42199c.3446.22977.4377.69542.208 1.04007l-9.8741 13.96014c-.1246.1869-.3265.3081-.5501.3303-.2236.0221-.4453-.0572-.6042-.216l-6.00003-6c-.2929-.2929-.2929-.7678 0-1.0607.29289-.2929.76776-.2929 1.06066 0l5.35307 5.3531 9.3666-13.1989c.2298-.34464.6954-.43777 1.0401-.20801z"/><path d="m17.8555 4.38365c.337.24075.4151.70916.1744 1.04623l-5.9775 8.36872c-.2408.3371-.7092.4151-1.0463.1744-.337-.2408-.4151-.7092-.1743-1.0462l5.9774-8.36877c.2408-.33706.7092-.41513 1.0463-.17438z"/><path d="m1.01928 12.4798c.2917-.2941.76657-.296 1.06065-.0043l6.01761 5.9689c.29408.2917.29601.7666.00431 1.0606-.2917.2941-.76657.296-1.06065.0043l-6.01761-5.9689c-.294084-.2917-.296013-.7666-.00431-1.0606z"/></g></svg>

<svg width="24" height="24" viewBox="0 0 24 24" fill="none" xmlns="http://www.w3.org/2000/svg">
<path fill-rule="evenodd" clip-rule="evenodd" d="M22.864 4.42199C23.2086 4.65176 23.3017 5.11741 23.072 5.46206L13.1979 19.4222C13.0733 19.6091 12.8714 19.7303 12.6478 19.7525C12.4242 19.7746 12.2025 19.6953 12.0436 19.5365L6.04357 13.5365C5.75067 13.2436 5.75067 12.7687 6.04357 12.4758C6.33646 12.1829 6.81133 12.1829 7.10423 12.4758L12.4573 17.8289L21.8239 4.63C22.0537 4.28536 22.5193 4.19223 22.864 4.42199Z" fill="#4360DF"/>
<path fill-rule="evenodd" clip-rule="evenodd" d="M17.8555 4.38365C18.1925 4.6244 18.2706 5.09281 18.0299 5.42988L12.0524 13.7986C11.8116 14.1357 11.3432 14.2137 11.0061 13.973C10.6691 13.7322 10.591 13.2638 10.8318 12.9268L16.8092 4.55803C17.05 4.22097 17.5184 4.1429 17.8555 4.38365Z" fill="#4360DF"/>
<path fill-rule="evenodd" clip-rule="evenodd" d="M1.01928 12.4798C1.31098 12.1857 1.78585 12.1838 2.07993 12.4755L8.09754 18.4444C8.39162 18.7361 8.39355 19.211 8.10185 19.505C7.81015 19.7991 7.33528 19.801 7.0412 19.5093L1.02359 13.5404C0.729506 13.2487 0.727577 12.7738 1.01928 12.4798Z" fill="#4360DF"/>
</svg>
